X: 1
T: Michael Kennedy's
R: reel
M: 4/4
L: 1/8
K: Ador
|:a2ag edcd|eaag (3efe dg|eaab agef|gedB GABd:|
|:eAAB cBAa|aAAG ABcd|eAAB cBAg|gedB GABd:|


Tune 551	Setting 13513

